src/22/panel/signal-unread-1.svg

<svg xmlns="http://www.w3.org/2000/svg" width="22" height="22" version="1.1">
 <defs>
  <style id="current-color-scheme" type="text/css">
   .ColorScheme-Text { color:#dfdfdf; } .ColorScheme-Highlight { color:#5294e2; }
  </style>
 </defs>
 <path style="fill:currentColor" class="ColorScheme-Text" d="M 11.017578 3 C 7.1248064 3 3.8883592 5.5954436 3.1835938 9.0273438 A 7.9814888 7.5 0 0 0 3 10.603516 A 7.9814888 7.5 0 0 0 4.2324219 14.580078 A 3 3 0 0 1 6 14 A 3 3 0 0 1 6.4707031 14.041016 L 6.0976562 13.630859 L 6.0742188 13.603516 L 6.0527344 13.574219 L 5.7792969 13.162109 L 5.765625 13.140625 L 5.7539062 13.117188 L 5.7441406 13.101562 L 6.3417969 12.783203 L 6.609375 12.605469 L 6.6269531 12.632812 L 6.859375 12.982422 L 7.4746094 13.662109 L 7.8261719 13.927734 L 7.4785156 14.392578 A 3 3 0 0 1 8.2753906 15.048828 L 8.5898438 14.404297 L 9.0625 14.636719 L 10.003906 14.90625 L 10.332031 14.951172 L 10.195312 15.943359 L 9.84375 15.894531 L 9.8105469 15.888672 L 9.7773438 15.878906 L 8.7460938 15.587891 L 8.703125 15.576172 L 8.6621094 15.554688 L 8.6113281 15.529297 A 3 3 0 0 1 9 17 A 3 3 0 0 1 8.8808594 17.826172 A 7.9814888 7.5 0 0 0 10.982422 18.103516 A 7.9814888 7.5 0 0 0 18.818359 11.996094 C 18.935088 11.490394 19 10.965934 19 10.427734 C 19 6.3250348 15.425354 2.9999999 11.017578 3 z M 10.996094 5 L 11.017578 5 L 11.041016 5 L 11.603516 5.0253906 L 11.625 5.0273438 L 11.648438 5.03125 L 12.193359 5.1054688 L 12.226562 5.1113281 L 12.259766 5.1210938 L 12.416016 5.1640625 L 12.144531 6.1269531 L 12.03125 6.09375 L 11.53125 6.0234375 L 11.017578 6.0019531 L 10.503906 6.0234375 L 10.365234 6.0429688 L 10.228516 5.0527344 L 10.388672 5.03125 L 10.412109 5.0273438 L 10.433594 5.0253906 L 10.996094 5 z M 9.1914062 5.2871094 L 9.4609375 6.2480469 L 9.0625 6.3632812 L 8.2109375 6.7832031 L 7.8515625 7.0527344 L 7.2539062 6.2519531 L 7.6503906 5.953125 L 7.6875 5.9257812 L 7.7285156 5.90625 L 8.6621094 5.4453125 L 8.703125 5.4238281 L 8.7460938 5.4121094 L 9.1914062 5.2871094 z M 13.455078 5.484375 L 14.308594 5.90625 L 14.349609 5.9257812 L 14.384766 5.953125 L 15.199219 6.5644531 L 15.234375 6.59375 L 15.267578 6.6289062 L 15.287109 6.6503906 L 14.804688 7.0898438 L 14.599609 7.3652344 L 13.826172 6.7832031 L 13.013672 6.3808594 L 13.455078 5.484375 z M 6.4472656 6.984375 L 7.1855469 7.65625 L 6.859375 8.015625 L 6.6230469 8.375 L 6.4160156 8.7675781 L 6.2421875 9.1953125 L 5.3164062 8.8222656 L 5.5 8.3671875 L 5.5097656 8.3417969 L 5.5214844 8.3203125 L 5.7539062 7.8828125 L 5.765625 7.859375 L 5.7792969 7.8378906 L 6.0527344 7.4257812 L 6.0742188 7.3964844 L 6.0976562 7.3691406 L 6.4472656 6.984375 z M 16.001953 7.453125 L 16.257812 7.8378906 L 16.271484 7.859375 L 16.283203 7.8828125 L 16.515625 8.3203125 L 16.527344 8.3417969 L 16.537109 8.3671875 L 16.722656 8.8261719 L 16.732422 8.8515625 L 16.740234 8.8769531 L 16.875 9.3554688 L 16.882812 9.3828125 L 16.886719 9.4101562 L 16.894531 9.4570312 L 15.970703 9.6132812 L 15.914062 9.6289062 L 15.912109 9.6230469 L 15.910156 9.6230469 L 15.90625 9.6035156 L 15.785156 9.171875 L 15.623047 8.7675781 L 15.414062 8.375 L 15.171875 8.0078125 L 16.001953 7.453125 z M 5.0683594 9.9003906 L 5.6035156 9.9902344 L 6.0566406 10.015625 L 6.03125 10.5 L 6.0546875 10.953125 L 6.1289062 11.392578 L 6.25 11.822266 L 5.2890625 12.09375 L 5.1621094 11.644531 L 5.1542969 11.617188 L 5.1503906 11.589844 L 5.0683594 11.09375 L 5.0644531 11.066406 L 5.0625 11.039062 L 5.0332031 10.527344 L 5.0332031 10.5 L 5.0332031 10.472656 L 5.0625 9.9609375 L 5.0644531 9.9335938 L 5.0683594 9.90625 L 5.0683594 9.9003906 z M 16.007812 10.472656 L 17.003906 10.527344 L 16.974609 11.039062 L 16.972656 11.066406 L 16.96875 11.09375 L 16.884766 11.589844 L 16.880859 11.617188 L 16.873047 11.644531 L 16.740234 12.123047 L 16.732422 12.148438 L 16.722656 12.173828 L 16.541016 12.625 L 15.615234 12.251953 L 15.785156 11.828125 L 15.908203 11.392578 L 15.982422 10.953125 L 16.007812 10.472656 z M 15.199219 12.960938 L 15.9375 13.632812 L 15.267578 14.371094 L 15.234375 14.40625 L 15.199219 14.435547 L 14.396484 15.037109 L 13.798828 14.238281 L 14.5625 13.662109 L 15.199219 12.960938 z M 13.019531 14.625 L 13.074219 14.820312 L 13.425781 15.53125 L 13.375 15.554688 L 13.333984 15.576172 L 13.291016 15.587891 L 12.259766 15.878906 L 12.226562 15.888672 L 12.193359 15.894531 L 11.648438 15.96875 L 11.625 15.972656 L 11.603516 15.974609 L 11.28125 15.988281 L 11.236328 14.988281 L 11.53125 14.976562 L 12.033203 14.90625 L 12.978516 14.636719 L 12.982422 14.634766 L 13.019531 14.625 z"/>
 <circle style="fill:currentColor" class="ColorScheme-Highlight" cx="6" cy="17" r="2"/>
</svg>

<svg xmlns="http://www.w3.org/2000/svg" width="22" height="22"><path d="M11.018 3c-3.893 0-7.13 2.595-7.834 6.027A7.981 7.5 0 0 0 3 10.604a7.981 7.5 0 0 0 1.232 3.976A3 3 0 0 1 6 14a3 3 0 0 1 .47.041l-.372-.41-.024-.027-.021-.03-.274-.412-.013-.021-.012-.024-.01-.015.598-.319.267-.178.018.028.232.35.616.68.351.265-.347.465a3 3 0 0 1 .796.656l.315-.645.473.233.94.27.329.044-.137.992-.351-.048-.033-.006-.034-.01-1.03-.291-.044-.012-.04-.021-.052-.026A3 3 0 0 1 9 17a3 3 0 0 1-.12.826 7.981 7.5 0 0 0 2.102.278 7.981 7.5 0 0 0 7.836-6.108c.117-.506.182-1.03.182-1.568C19 6.325 15.425 3 11.018 3zm-.022 2h.045l.563.025.021.002.023.004.545.074.034.006.033.01.156.043-.271.963-.114-.033-.5-.07-.513-.022-.514.021-.139.02-.136-.99.16-.022.023-.004.022-.002.562-.025zm-1.805.287l.27.961-.399.115-.851.42-.36.27-.597-.801.396-.299.037-.027.042-.02.933-.46.041-.022.043-.012.445-.125zm4.264.197l.854.422.04.02.036.027.814.611.035.03.034.035.02.021-.483.44-.205.275-.774-.582-.812-.402.441-.897zm-7.008 1.5l.739.672-.327.36-.236.359-.207.393-.174.427-.926-.373.184-.455.01-.025.011-.022.233-.437.012-.024.013-.021.274-.412.021-.03.024-.027.35-.385zm9.555.47l.256.384.013.021.012.024.233.437.011.022.01.025.186.46.01.025.007.025.135.478.008.028.004.027.008.047-.924.156-.057.016-.002-.006h-.002l-.004-.02-.12-.431-.163-.404-.209-.393-.242-.367.83-.555zM5.068 9.9l.536.09.453.026-.026.484.024.453.074.44.121.43-.96.27-.128-.448-.008-.028-.004-.027-.082-.496-.004-.028-.002-.027-.029-.512v-.054l.03-.512.001-.027.004-.028V9.9zm10.94.573l.996.054-.03.512-.001.027-.004.028-.084.496-.004.027-.008.028-.133.478-.008.025-.01.026-.181.451-.926-.373.17-.424.123-.435.074-.44.026-.48zm-.809 2.488l.739.672-.67.738-.034.035-.035.03-.803.601-.597-.799.764-.576.636-.701zm-2.18 1.664l.055.195.352.711-.051.024-.041.021-.043.012-1.031.29-.033.01-.034.007-.545.074-.023.004-.021.002-.323.013-.045-1 .295-.011.502-.07.946-.27.003-.002.038-.01z" fill="currentColor" color="#dfdfdf"/><circle cx="6" cy="17" r="2" fill="currentColor" color="#5294e2"/></svg>
